public/static/img/bottom/zichan2.svg

<svg xmlns="http://www.w3.org/2000/svg" width="28" height="28" viewBox="0 0 28 28" fill="none">
  <rect x="2" y="2" width="23.33" height="23.33" rx="6" fill="#00A609"/>
  <path d="M14.0057 8.22852L19.7804 14.0032L14.0057 19.7779L8.23102 14.0032L14.0057 8.22852ZM14.0057 11.5283L11.5308 14.0032L14.0057 16.4781L16.4806 14.0032L14.0057 11.5283Z" fill="white"/>
</svg>

<svg xmlns="http://www.w3.org/2000/svg" width="28" height="28" fill="none"><rect x="2" y="2" width="23.33" height="23.33" rx="6" fill="#00A609"/><path d="m14.006 8.229 5.774 5.774-5.774 5.775-5.775-5.775 5.775-5.774Zm0 3.3-2.475 2.474 2.475 2.475 2.475-2.475-2.475-2.475Z" fill="#fff"/></svg>
